src/assets/Logo Novios_1.svg

<svg width="51" height="62" viewBox="0 0 51 62" fill="none" xmlns="http://www.w3.org/2000/svg">
<path d="M25.5 0C11.44 0 0 13.9063 0 30.999C0 48.0917 11.44 61.998 25.5 61.998C39.56 61.998 51 48.0917 51 30.999C51 13.9063 39.56 0 25.5 0ZM25.5 61.8036C11.5465 61.8036 0.193637 47.9856 0.193637 30.999C0.193637 14.0124 11.5465 0.196445 25.5 0.196445C39.4534 0.196445 50.8064 14.0144 50.8064 30.999C50.8064 47.9837 39.4534 61.8016 25.5 61.8016V61.8036Z" fill="#A39D79"/>
<path d="M49.6445 25.8227C47.6327 11.7612 37.5713 1.03919 25.5 1.03919C11.9842 1.03919 0.987547 14.48 0.987547 30.999C0.987547 47.5181 11.9842 60.9608 25.5 60.9608C39.0158 60.9608 50.0125 47.52 50.0125 30.999C50.0125 29.2349 49.8866 27.5062 49.6465 25.8247V25.8207L49.6445 25.8227ZM25.5 1.21599C37.4609 1.21599 47.4352 11.8319 49.4625 25.7677L49.3696 25.8011C49.1179 25.8895 49.1488 25.8797 48.8797 26.0211C46.6722 26.9464 43.2875 26.8226 40.0131 26.7028C37.9005 26.6262 35.9041 26.5515 34.1846 26.7381C32.9608 24.2963 30.5558 23.2159 27.7694 23.8013L26.5844 17.1221C26.4333 16.3069 26.5631 15.6527 26.9736 15.1557C27.3841 14.6607 27.9979 14.3582 28.8189 14.2462V14.0478H25.8059C25.5039 14.0478 25.2173 14.1244 24.9481 14.2796C24.677 14.4348 24.4892 14.643 24.3808 14.9082L17.5144 32.6511L10.0323 14.9082C9.92387 14.6214 9.73024 14.4073 9.44946 14.2639C9.16869 14.1205 8.8763 14.0497 8.57423 14.0497H5.49734C9.8987 6.29999 17.224 1.21599 25.5 1.21599ZM19.9484 41.0197C20.8121 42.1178 22.2334 42.6502 24.0593 42.5637C26.9058 42.4282 29.9594 40.5718 32.2386 37.5956L34.3221 38.1418C33.4875 38.9138 32.6452 39.7467 31.7564 40.6248C27.8856 44.4555 23.4978 48.7989 18.227 49.0484C15.2334 49.1918 13.0453 47.5436 12.6522 44.8543C12.2223 41.9115 14.118 38.1398 19.2804 36.7332C18.8679 38.4305 19.1022 39.9471 19.9484 41.0216V41.0197ZM27.8488 24.2551C30.4087 23.6952 32.5581 24.6028 33.7179 26.7774C31.8706 27.0132 30.124 27.4355 28.5169 28.0229L27.8488 24.2551ZM33.9309 27.2135C35.1702 30.0404 34.4615 33.816 32.074 37.1085C30.339 36.6429 28.6059 36.2127 26.7703 35.9671L28.3639 35.8866L31.7002 36.1184V35.92C31.0303 35.92 30.5287 35.6941 30.1937 35.2422C29.8588 34.7904 29.6167 34.1677 29.4657 33.376L28.5943 28.457C30.1531 27.8854 31.9268 27.4512 33.9309 27.2135ZM27.3608 33.376C27.4906 34.1696 27.2853 34.7924 26.7451 35.2422C26.4178 35.5153 25.926 35.7039 25.2754 35.8119C24.4253 35.751 23.552 35.7353 22.64 35.7785C21.6621 35.8257 20.7578 35.9435 19.9484 36.1321C20.7791 33.8062 22.9401 31.1287 26.6715 29.2782L27.3608 33.376ZM22.6632 36.2343C26.0035 36.0752 28.7763 36.6979 31.7738 37.4778C29.5954 40.2555 26.716 41.9823 24.04 42.11C22.3399 42.1905 21.0347 41.7013 20.2621 40.6955C19.4856 39.6839 19.3152 38.238 19.7819 36.6213C20.6533 36.4111 21.5982 36.2854 22.6632 36.2343ZM32.804 37.299L32.5329 37.2263C34.8894 33.8985 35.5923 30.0698 34.386 27.1487C36.0358 26.9915 37.9353 27.0642 39.9433 27.1428C42.4451 27.2391 45.0224 27.3393 47.1311 26.9621C44.5074 28.6338 41.5699 31.3978 38.7234 34.0773L38.6963 34.1029C37.4784 35.2638 36.2817 36.3541 35.0134 37.5072L34.7055 37.7882C34.1129 37.6487 33.5049 37.4856 32.804 37.299ZM41.628 33.1206C43.7967 31.0305 46.0003 28.9344 47.683 27.5691C44.002 31.0128 40.805 34.7099 38.3633 38.3559C37.7281 38.3146 37.0543 38.2361 36.2178 38.1084C38.0651 36.4386 39.831 34.7963 41.6261 33.1226L41.628 33.1206ZM5.38503 14.2521C6.1925 14.368 7.01545 14.6666 7.49374 15.1538C7.97976 15.6488 8.12499 16.3599 7.93135 17.2852L4.66083 33.2778C4.4672 34.203 4.16899 34.8749 3.7701 35.2933C3.37896 35.7039 2.37011 35.9121 1.49875 35.92C1.27994 34.3189 1.16569 32.6767 1.16569 31.001C1.16569 24.7953 2.72447 19.0296 5.38891 14.254L5.38503 14.2521ZM25.5 60.784C13.5042 60.784 3.50869 50.1072 1.52198 36.1125L4.59306 35.8866L8.60908 36.1184V35.92C7.20522 35.92 6.26027 35.7117 5.77618 35.2913C5.29015 34.8729 5.13331 34.2011 5.30564 33.2758L8.47935 16.8216L16.6411 35.6214L24.4795 16.2264L26.5999 28.8342C25.6491 29.2978 24.7622 29.8282 23.9509 30.4215C21.7105 32.0598 20.1092 34.1225 19.4353 36.2402C13.8431 37.6271 11.777 41.6876 12.2243 44.8838C12.6387 47.8422 15.0049 49.6534 18.2522 49.4982C24.162 49.2173 29.7677 44.0449 34.2717 39.8901C34.8023 39.401 35.3174 38.9256 35.815 38.4757C36.636 38.6348 37.3486 38.7488 38.069 38.7822C36.2546 41.5599 34.9224 44.2276 34.2117 46.5103C33.259 49.6299 33.441 52.0599 34.7268 53.3525C35.4626 54.0931 36.5373 54.431 37.8966 54.3661C39.0662 54.3111 40.683 53.8043 41.3472 53.5882C37.0872 58.0691 31.5492 60.782 25.5039 60.782L25.5 60.784ZM41.8913 52.9969C41.8604 52.9792 41.8255 52.9753 41.7926 52.9851C39.7497 53.6491 36.9284 53.9261 35.997 53.0146C34.841 51.885 34.6377 49.5768 35.4355 46.6812C36.0822 44.318 37.3544 41.5992 39.1146 38.8116C41.0819 38.7684 42.8227 38.2125 44.5829 37.0593C44.6371 37.024 44.6545 36.9513 44.6235 36.8943L44.5287 36.7215C44.5112 36.692 44.4841 36.6704 44.4512 36.6606C44.4183 36.6527 44.3834 36.6586 44.3544 36.6763C42.7821 37.6998 41.1652 38.2459 39.4147 38.3402C42.0443 34.2836 45.3361 30.2034 49.5361 26.3138C49.7336 27.8402 49.8382 29.4039 49.8382 30.9971C49.8382 39.6996 46.771 47.5436 41.8913 52.993V52.9969Z" fill="#A39D79"/>
</svg>

<svg xmlns="http://www.w3.org/2000/svg" fill="none" viewBox="0 0 51 62"><path fill="#a39d79" d="M25.5 0C11.44 0 0 13.906 0 30.999s11.44 30.999 25.5 30.999S51 48.092 51 30.999 39.56 0 25.5 0m0 61.804C11.547 61.804.194 47.986.194 30.999S11.547.196 25.5.196 50.806 14.014 50.806 31 39.453 61.802 25.5 61.802z"/><path fill="#a39d79" d="M49.645 25.823C47.633 11.76 37.57 1.039 25.5 1.039 11.984 1.04.988 14.48.988 31c0 16.52 10.996 29.962 24.512 29.962S50.013 47.52 50.013 30.999c0-1.764-.126-3.493-.366-5.174v-.004zM25.5 1.216c11.96 0 21.935 10.616 23.963 24.552l-.093.033c-.252.089-.221.079-.49.22-2.208.925-5.593.802-8.867.682-2.112-.077-4.109-.151-5.828.035-1.224-2.442-3.63-3.522-6.416-2.937l-1.185-6.679q-.225-1.222.39-1.966.614-.742 1.845-.91v-.198h-3.013q-.454-.001-.858.232a1.26 1.26 0 0 0-.567.628l-6.867 17.743-7.482-17.743a1.17 1.17 0 0 0-.583-.644 1.9 1.9 0 0 0-.875-.214H5.497C9.9 6.3 17.224 1.216 25.5 1.216M19.948 41.02c.864 1.098 2.285 1.63 4.111 1.544 2.847-.136 5.9-1.992 8.18-4.968l2.083.546c-.835.772-1.677 1.605-2.566 2.483-3.87 3.83-8.258 8.174-13.529 8.423-2.994.144-5.182-1.504-5.575-4.194-.43-2.943 1.466-6.714 6.628-8.12-.412 1.697-.178 3.213.668 4.288zm7.9-16.765c2.56-.56 4.71.348 5.87 2.522a24 24 0 0 0-5.201 1.246zm6.083 2.959c1.24 2.826.53 6.602-1.857 9.895-1.735-.466-3.468-.896-5.304-1.142l1.594-.08 3.336.231v-.198q-1.004 0-1.506-.678t-.728-1.866l-.872-4.919c1.56-.572 3.333-1.006 5.337-1.244m-6.57 6.162q.194 1.191-.616 1.866-.492.409-1.47.57c-.85-.061-1.723-.077-2.635-.033-.978.047-1.882.164-2.692.353.831-2.326 2.992-5.003 6.724-6.854zm-4.698 2.858c3.34-.159 6.113.464 9.11 1.244-2.178 2.777-5.057 4.504-7.733 4.632-1.7.08-3.005-.409-3.778-1.414-.776-1.012-.947-2.458-.48-4.075.871-.21 1.816-.336 2.881-.387M32.804 37.3l-.271-.073c2.356-3.328 3.06-7.156 1.853-10.077 1.65-.158 3.55-.085 5.557-.006 2.502.096 5.08.196 7.188-.18-2.624 1.67-5.561 4.435-8.408 7.114l-.027.026a210 210 0 0 1-3.683 3.404l-.307.281c-.593-.14-1.201-.302-1.902-.489m8.824-4.178c2.169-2.09 4.372-4.187 6.055-5.552-3.681 3.444-6.878 7.14-9.32 10.787a25 25 0 0 1-2.145-.248 472 472 0 0 0 5.408-4.985zM5.385 14.252c.808.116 1.63.415 2.109.902q.728.743.437 2.131l-3.27 15.993q-.292 1.388-.89 2.015c-.392.41-1.4.62-2.272.627a36 36 0 0 1-.333-4.919c0-6.206 1.558-11.971 4.223-16.747zM25.5 60.784c-11.996 0-21.991-10.677-23.978-24.671l3.071-.226 4.016.231v-.198q-2.107.001-2.833-.629-.73-.627-.47-2.015l3.173-16.454 8.162 18.8 7.839-19.396 2.12 12.608c-.95.464-1.838.994-2.65 1.588-2.24 1.638-3.84 3.7-4.515 5.818-5.592 1.387-7.658 5.448-7.21 8.644.414 2.958 2.78 4.77 6.027 4.614 5.91-.28 11.516-5.453 16.02-9.608.53-.489 1.045-.964 1.543-1.414.821.159 1.534.273 2.254.306-1.814 2.778-3.147 5.446-3.857 7.728-.953 3.12-.771 5.55.515 6.843.736.74 1.81 1.078 3.17 1.013 1.17-.055 2.786-.562 3.45-.778-4.26 4.481-9.798 7.194-15.843 7.194zm16.391-7.787a.13.13 0 0 0-.098-.012c-2.043.664-4.865.941-5.796.03-1.156-1.13-1.36-3.438-.562-6.334.647-2.363 1.92-5.082 3.68-7.87 1.967-.043 3.708-.599 5.468-1.752a.126.126 0 0 0 .04-.165l-.094-.172a.13.13 0 0 0-.078-.061.13.13 0 0 0-.097.015c-1.572 1.024-3.189 1.57-4.94 1.664a63 63 0 0 1 10.122-12.026 36.5 36.5 0 0 1 .302 4.683c0 8.703-3.067 16.547-7.947 21.996z"/></svg>
